Numix-Light/16/status/indicator-keyboard-In-4.svg

<?xml version="1.0" encoding="UTF-8" standalone="no"?>
<svg
   xmlns:dc="http://purl.org/dc/elements/1.1/"
   xmlns:cc="http://creativecommons.org/ns#"
   xmlns:rdf="http://www.w3.org/1999/02/22-rdf-syntax-ns#"
   xmlns:svg="http://www.w3.org/2000/svg"
   xmlns="http://www.w3.org/2000/svg"
   xmlns:sodipodi="http://sodipodi.sourceforge.net/DTD/sodipodi-0.dtd"
   xmlns:inkscape="http://www.inkscape.org/namespaces/inkscape"
   viewBox="0 0 16 16"
   id="svg2"
   version="1.1"
   inkscape:version="0.91 r13725"
   sodipodi:docname="indicator-keyboard-In-4.svg">
  <metadata
     id="metadata14">
    <rdf:RDF>
      <cc:Work
         rdf:about="">
        <dc:format>image/svg+xml</dc:format>
        <dc:type
           rdf:resource="http://purl.org/dc/dcmitype/StillImage" />
      </cc:Work>
    </rdf:RDF>
  </metadata>
  <defs
     id="defs12" />
  <sodipodi:namedview
     pagecolor="#ffffff"
     bordercolor="#666666"
     borderopacity="1"
     objecttolerance="10"
     gridtolerance="10"
     guidetolerance="10"
     inkscape:pageopacity="0"
     inkscape:pageshadow="2"
     inkscape:window-width="459"
     inkscape:window-height="369"
     id="namedview10"
     showgrid="false"
     inkscape:zoom="14.75"
     inkscape:cx="8"
     inkscape:cy="8"
     inkscape:window-x="65"
     inkscape:window-y="24"
     inkscape:window-maximized="0"
     inkscape:current-layer="svg2" />
  <path
     style="fill:#353535;fill-opacity:1"
     d="M 1.5996094 0 C 0.71320937 2.9605947e-16 0 0.71320937 0 1.5996094 L 0 14.400391 C 2.9605947e-16 15.286791 0.71320937 16 1.5996094 16 L 14.400391 16 C 15.286791 16 16 15.286791 16 14.400391 L 16 1.5996094 C 16 0.71320937 15.286791 0 14.400391 0 L 1.5996094 0 z M 3.2285156 4.859375 L 3.8398438 4.859375 L 3.8398438 11.095703 L 3.2285156 11.095703 L 3.2285156 4.859375 z M 7.2070312 6.3535156 C 7.5610312 6.3535156 7.8538906 6.4038594 8.0878906 6.5058594 C 8.3278906 6.6078594 8.5162969 6.7552656 8.6542969 6.9472656 C 8.7982969 7.1332656 8.9009375 7.3570938 8.9609375 7.6210938 C 9.0209375 7.8850938 9.0507812 8.1761406 9.0507812 8.4941406 L 9.0507812 11.095703 L 8.4667969 11.095703 L 8.4667969 8.6835938 C 8.4667969 8.3535938 8.4425312 8.0756562 8.3945312 7.8476562 C 8.3525313 7.6196563 8.2779219 7.4330625 8.1699219 7.2890625 C 8.0679219 7.1450625 7.9298594 7.0424219 7.7558594 6.9824219 C 7.5878594 6.9164219 7.3732344 6.8847656 7.1152344 6.8847656 C 6.8392344 6.8847656 6.6004844 6.8996875 6.3964844 6.9296875 C 6.1984844 6.9596875 6.0697656 6.9857656 6.0097656 7.0097656 L 6.0097656 11.095703 L 5.4238281 11.095703 L 5.4238281 6.6054688 C 5.5978281 6.5574688 5.8329531 6.5033594 6.1269531 6.4433594 C 6.4209531 6.3833594 6.7810312 6.3535156 7.2070312 6.3535156 z M 11.871094 8.8417969 L 12.269531 8.8417969 L 12.269531 11.486328 L 12.771484 11.486328 L 12.771484 11.796875 L 12.269531 11.796875 L 12.269531 12.896484 L 11.894531 12.896484 L 11.894531 11.796875 L 10.058594 11.796875 L 10.058594 11.5625 C 10.128794 11.3753 10.224809 11.163688 10.349609 10.929688 C 10.478309 10.695687 10.623303 10.456638 10.783203 10.210938 C 10.943103 9.9652374 11.117487 9.7261874 11.304688 9.4921875 C 11.491888 9.2542875 11.679994 9.0367969 11.871094 8.8417969 z M 11.894531 9.2695312 C 11.758031 9.4099313 11.618916 9.5706063 11.478516 9.7539062 C 11.338116 9.9372063 11.204872 10.129225 11.076172 10.328125 C 10.951372 10.523125 10.833809 10.719069 10.724609 10.917969 C 10.615409 11.116869 10.523319 11.306928 10.449219 11.486328 L 11.894531 11.486328 L 11.894531 9.2695312 z "
     id="path4" />
</svg>

<svg xmlns="http://www.w3.org/2000/svg" viewBox="0 0 16 16">
 <path d="m 1.6 0 c -0.886 0 -1.6 0.713 -1.6 1.6 l 0 12.801 c 0 0.886 0.713 1.6 1.6 1.6 l 12.801 0 c 0.886 0 1.6 -0.713 1.6 -1.6 l 0 -12.801 c 0 -0.886 -0.713 -1.6 -1.6 -1.6 l -12.801 0 z m 1.629 4.859 l 0.611 0 l 0 6.236 l -0.611 0 l 0 -6.236 z m 3.979 1.494 c 0.354 0 0.647 0.05 0.881 0.152 c 0.24 0.102 0.428 0.249 0.566 0.441 c 0.144 0.186 0.247 0.41 0.307 0.674 c 0.06 0.264 0.09 0.555 0.09 0.873 l 0 2.602 l -0.584 0 l 0 -2.412 c 0 -0.33 -0.024 -0.608 -0.072 -0.836 c -0.042 -0.228 -0.117 -0.415 -0.225 -0.559 c -0.102 -0.144 -0.24 -0.247 -0.414 -0.307 c -0.168 -0.066 -0.383 -0.098 -0.641 -0.098 c -0.276 0 -0.515 0.015 -0.719 0.045 c -0.198 0.03 -0.327 0.056 -0.387 0.08 l 0 4.086 l -0.586 0 l 0 -4.49 c 0.174 -0.048 0.409 -0.102 0.703 -0.162 c 0.294 -0.06 0.654 -0.09 1.08 -0.09 z m 4.664 2.488 l 0.398 0 l 0 2.645 l 0.502 0 l 0 0.311 l -0.502 0 l 0 1.1 l -0.375 0 l 0 -1.1 l -1.836 0 l 0 -0.234 c 0.07 -0.187 0.166 -0.399 0.291 -0.633 c 0.129 -0.234 0.274 -0.473 0.434 -0.719 c 0.16 -0.246 0.334 -0.485 0.521 -0.719 c 0.187 -0.238 0.375 -0.455 0.566 -0.65 z m 0.023 0.428 c -0.136 0.14 -0.276 0.301 -0.416 0.484 c -0.14 0.183 -0.274 0.375 -0.402 0.574 c -0.125 0.195 -0.242 0.391 -0.352 0.59 c -0.109 0.199 -0.201 0.389 -0.275 0.568 l 1.445 0 l 0 -2.217 z" style="fill:#353535;fill-opacity:1"/>
</svg>
